Public/compensation.svg

<?xml version="1.0" encoding="UTF-8"?>
<svg width="24px" height="24px" viewBox="0 0 24 24" version="1.1" xmlns="http://www.w3.org/2000/svg" xmlns:xlink="http://www.w3.org/1999/xlink">
    <!-- Generator: Sketch 53.2 (72643) - https://sketchapp.com -->
    <title>Group 8</title>
    <desc>Created with Sketch.</desc>
    <g id="Page-1" stroke="none" stroke-width="1" fill="none" fill-rule="evenodd">
        <g id="claims_snabbval_försenat-bagage" transform="translate(-24.000000, -470.000000)">
            <g id="Group-3" transform="translate(16.000000, 454.000000)">
                <g id="Group-8" transform="translate(8.000000, 16.000000)">
                    <g id="Group-11">
                        <path d="M12.644,18.362 L11.552,18.362 L11.552,16.906 C10.6466621,16.8126662 9.93266928,16.4976694 9.41,15.961 C8.88733072,15.4243307 8.58400042,14.8153367 8.5,14.134 L9.83,13.714 C9.8766669,14.1993358 10.0446652,14.6239982 10.334,14.988 C10.6233348,15.3520018 11.0293307,15.5806662 11.552,15.674 L11.552,12.748 L11.202,12.678 C10.4739964,12.5286659 9.90466872,12.2346689 9.494,11.796 C9.08333128,11.3573311 8.878,10.8020034 8.878,10.13 C8.878,9.45799664 9.12766417,8.87000252 9.627,8.366 C10.1263358,7.86199748 10.7679961,7.5633338 11.552,7.47 L11.552,6 L12.644,6 L12.644,7.484 C13.4186705,7.58666718 14.0136646,7.85499783 14.429,8.289 C14.8443354,8.72300217 15.1219993,9.21533058 15.262,9.766 L14.002,10.228 C13.9553331,9.91999846 13.8153345,9.62133478 13.582,9.332 C13.3486655,9.04266522 13.036002,8.84200056 12.644,8.73 L12.644,11.6 L12.854,11.642 C13.6193372,11.7913341 14.2259978,12.1039976 14.674,12.58 C15.1220022,13.0560024 15.346,13.6113302 15.346,14.246 C15.346,14.90867 15.1080024,15.4919975 14.632,15.996 C14.1559976,16.5000025 13.4933376,16.8033328 12.644,16.906 L12.644,18.362 Z M13.974,14.316 C13.974,14.0079985 13.8620011,13.7326679 13.638,13.49 C13.4139989,13.2473321 13.0826689,13.0746672 12.644,12.972 L12.644,15.674 C13.0826689,15.5899996 13.4139989,15.4266679 13.638,15.184 C13.8620011,14.9413321 13.974,14.6520017 13.974,14.316 Z M10.264,10.074 C10.264,10.7553367 10.693329,11.1799992 11.552,11.348 L11.552,8.688 C11.1506647,8.76266704 10.8356678,8.92599874 10.607,9.178 C10.3783322,9.43000126 10.264,9.72866494 10.264,10.074 Z" id="$" fill="#141033" fill-rule="nonzero"></path>
                        <circle id="Oval" stroke="#141033" stroke-width="1.5" cx="12" cy="12" r="11.25"></circle>
                    </g>
                </g>
            </g>
        </g>
    </g>
</svg>

<svg width="24" height="24" xmlns="http://www.w3.org/2000/svg"><g fill="none" fill-rule="evenodd"><path d="M12.644 18.362h-1.092v-1.456c-.905-.093-1.62-.408-2.142-.945-.523-.537-.826-1.146-.91-1.827l1.33-.42c.047.485.215.91.504 1.274.29.364.695.593 1.218.686v-2.926l-.35-.07c-.728-.15-1.297-.443-1.708-.882-.41-.439-.616-.994-.616-1.666 0-.672.25-1.26.749-1.764.5-.504 1.141-.803 1.925-.896V6h1.092v1.484c.775.103 1.37.371 1.785.805.415.434.693.926.833 1.477l-1.26.462c-.047-.308-.187-.607-.42-.896a1.805 1.805 0 00-.938-.602v2.87l.21.042c.765.15 1.372.462 1.82.938.448.476.672 1.031.672 1.666 0 .663-.238 1.246-.714 1.75s-1.139.807-1.988.91v1.456zm1.33-4.046c0-.308-.112-.583-.336-.826-.224-.243-.555-.415-.994-.518v2.702c.439-.084.77-.247.994-.49.224-.243.336-.532.336-.868zm-3.71-4.242c0 .681.43 1.106 1.288 1.274v-2.66c-.401.075-.716.238-.945.49-.229.252-.343.55-.343.896z" fill="#141033" fill-rule="nonzero"/><circle stroke="#141033" stroke-width="1.5" cx="12" cy="12" r="11.25"/></g></svg>
